img/header/NFTinder_logo_big.svg

<svg preserveAspectRatio="xMinYMin meet" width="635" height="106" viewBox="0 0 635 106" fill="none" xmlns="http://www.w3.org/2000/svg">
<path d="M22.15 0L0 104.06H91L113.15 0H22.15Z" fill="url(#paint0_linear_376-nftinder-logo-big-header)"/>
<path fill-rule="evenodd" clip-rule="evenodd" d="M183.911 104.06L192.486 63.7742H192.385L183.911 104.06ZM196.505 44.8947L202.047 18.8796L196.398 44.8947H196.505Z" fill="white"/>
<path fill-rule="evenodd" clip-rule="evenodd" d="M183.911 104.06L192.486 63.7742H192.385L183.911 104.06ZM196.505 44.8947L202.047 18.8796L196.398 44.8947H196.505Z" fill="url(#paint1_linear_376-nftinder-logo-big-header)"/>
<path d="M184.803 0L163.663 99.3157L152.99 0H113.15L91 104.06H112.258L133.368 4.45974L144.071 104.06H183.911L192.385 63.7742H192.486H235.793L239.807 44.8947H196.505H196.398L202.047 18.8796H278.904L260.767 104.06H282.025L300.162 18.8796H322.883L326.897 0H250.956H184.803Z" fill="white"/>
<path d="M184.803 0L163.663 99.3157L152.99 0H113.15L91 104.06H112.258L133.368 4.45974L144.071 104.06H183.911L192.385 63.7742H192.486H235.793L239.807 44.8947H196.505H196.398L202.047 18.8796H278.904L260.767 104.06H282.025L300.162 18.8796H322.883L326.897 0H250.956H184.803Z" fill="url(#paint2_linear_376-nftinder-logo-big-header)"/>
<path d="M351.294 0H333.943L329.93 18.8796H347.28L351.294 0Z" fill="white"/>
<path d="M351.294 0H333.943L329.93 18.8796H347.28L351.294 0Z" fill="url(#paint3_linear_376-nftinder-logo-big-header)"/>
<path d="M311.791 104L327.051 32.9959H344.077L329.069 104H311.791Z" fill="white"/>
<path d="M311.791 104L327.051 32.9959H344.077L329.069 104H311.791Z" fill="url(#paint4_linear_376-nftinder-logo-big-header)"/>
<path d="M346.258 104L361.14 34.0048L374.887 32.9959L374.761 38.2928C380.142 33.6685 387.415 31.3563 396.579 31.3563C401.708 31.3563 405.954 31.9449 409.317 33.122C412.68 34.215 415.203 35.6443 416.884 37.41C418.566 39.1756 419.617 41.5719 420.037 44.5987C420.542 47.5414 420.668 50.4001 420.415 53.1747C420.163 55.8652 419.617 59.2283 418.776 63.2641L410.074 104H392.922L401.12 65.1559C401.708 61.8768 402.128 58.9761 402.381 56.4538C402.633 53.9314 401.708 51.9135 399.606 50.4001C397.588 48.8026 394.183 48.0039 389.391 48.0039C383.841 48.0039 379.848 49.3491 377.409 52.0396C374.971 54.7301 373.205 58.6398 372.112 63.7686L363.663 104H346.258Z" fill="white"/>
<path d="M346.258 104L361.14 34.0048L374.887 32.9959L374.761 38.2928C380.142 33.6685 387.415 31.3563 396.579 31.3563C401.708 31.3563 405.954 31.9449 409.317 33.122C412.68 34.215 415.203 35.6443 416.884 37.41C418.566 39.1756 419.617 41.5719 420.037 44.5987C420.542 47.5414 420.668 50.4001 420.415 53.1747C420.163 55.8652 419.617 59.2283 418.776 63.2641L410.074 104H392.922L401.12 65.1559C401.708 61.8768 402.128 58.9761 402.381 56.4538C402.633 53.9314 401.708 51.9135 399.606 50.4001C397.588 48.8026 394.183 48.0039 389.391 48.0039C383.841 48.0039 379.848 49.3491 377.409 52.0396C374.971 54.7301 373.205 58.6398 372.112 63.7686L363.663 104H346.258Z" fill="url(#paint5_linear_376-nftinder-logo-big-header)"/>
<path d="M455.074 105.135C437.502 105.135 428.716 96.5592 428.716 79.4072C428.716 75.2873 429.346 70.3687 430.607 64.6514C432.962 53.6371 436.703 45.3554 441.832 39.8062C447.045 34.173 454.696 31.3563 464.785 31.3563C477.481 31.3563 485.3 34.0469 488.243 39.4279L495.558 6.13281H512.836L492.153 103.243L478.784 104.631L479.037 98.4509C474.244 102.907 466.257 105.135 455.074 105.135ZM461.632 90.0011C467.602 90.0011 472.142 88.6138 475.253 85.8392C478.364 82.9805 480.718 77.8517 482.316 70.4528C483.072 67.426 483.451 64.189 483.451 60.7418C483.451 56.1174 482.189 52.7123 479.667 50.5262C477.145 48.3402 472.983 47.2472 467.182 47.2472C461.464 47.2472 457.218 48.8447 454.444 52.0396C451.669 55.2346 449.525 60.2373 448.012 67.0476C447.255 70.4108 446.877 73.6478 446.877 76.7587C446.877 81.0467 447.97 84.3258 450.156 86.5959C452.426 88.866 456.251 90.0011 461.632 90.0011Z" fill="white"/>
<path d="M455.074 105.135C437.502 105.135 428.716 96.5592 428.716 79.4072C428.716 75.2873 429.346 70.3687 430.607 64.6514C432.962 53.6371 436.703 45.3554 441.832 39.8062C447.045 34.173 454.696 31.3563 464.785 31.3563C477.481 31.3563 485.3 34.0469 488.243 39.4279L495.558 6.13281H512.836L492.153 103.243L478.784 104.631L479.037 98.4509C474.244 102.907 466.257 105.135 455.074 105.135ZM461.632 90.0011C467.602 90.0011 472.142 88.6138 475.253 85.8392C478.364 82.9805 480.718 77.8517 482.316 70.4528C483.072 67.426 483.451 64.189 483.451 60.7418C483.451 56.1174 482.189 52.7123 479.667 50.5262C477.145 48.3402 472.983 47.2472 467.182 47.2472C461.464 47.2472 457.218 48.8447 454.444 52.0396C451.669 55.2346 449.525 60.2373 448.012 67.0476C447.255 70.4108 446.877 73.6478 446.877 76.7587C446.877 81.0467 447.97 84.3258 450.156 86.5959C452.426 88.866 456.251 90.0011 461.632 90.0011Z" fill="url(#paint6_linear_376-nftinder-logo-big-header)"/>
<path d="M542.64 105.387C521.705 105.387 511.237 96.391 511.237 78.3982C511.237 74.4465 511.741 69.8643 512.75 64.6514C514.936 53.8053 519.098 45.5656 525.236 39.9323C531.374 34.215 540.076 31.3563 551.342 31.3563C570.092 31.3563 579.467 38.6712 579.467 53.3008C579.467 58.9341 578.458 66.2489 576.44 75.2453H527.758V76.7587C527.758 86.1755 533.392 90.8839 544.658 90.8839C552.982 90.8839 559.918 89.1603 565.468 85.7131L572.278 98.0726C564.963 102.949 555.084 105.387 542.64 105.387ZM549.324 46.2382C544.196 46.2382 540.118 47.5414 537.091 50.1479C534.148 52.7543 531.878 56.6219 530.281 61.7507H562.693C563.113 59.6487 563.324 57.799 563.324 56.2015C563.324 53.0065 562.273 50.5683 560.171 48.8867C558.153 47.1211 554.537 46.2382 549.324 46.2382Z" fill="white"/>
<path d="M542.64 105.387C521.705 105.387 511.237 96.391 511.237 78.3982C511.237 74.4465 511.741 69.8643 512.75 64.6514C514.936 53.8053 519.098 45.5656 525.236 39.9323C531.374 34.215 540.076 31.3563 551.342 31.3563C570.092 31.3563 579.467 38.6712 579.467 53.3008C579.467 58.9341 578.458 66.2489 576.44 75.2453H527.758V76.7587C527.758 86.1755 533.392 90.8839 544.658 90.8839C552.982 90.8839 559.918 89.1603 565.468 85.7131L572.278 98.0726C564.963 102.949 555.084 105.387 542.64 105.387ZM549.324 46.2382C544.196 46.2382 540.118 47.5414 537.091 50.1479C534.148 52.7543 531.878 56.6219 530.281 61.7507H562.693C563.113 59.6487 563.324 57.799 563.324 56.2015C563.324 53.0065 562.273 50.5683 560.171 48.8867C558.153 47.1211 554.537 46.2382 549.324 46.2382Z" fill="url(#paint7_linear_376-nftinder-logo-big-header)"/>
<path d="M583.348 104L598.23 34.0048L611.976 32.9959L611.724 39.9323C615.592 34.7195 623.201 32.113 634.551 32.113L631.02 48.8867C623.621 48.9708 618.324 50.4421 615.129 53.3008C612.018 56.1595 609.79 60.7418 608.445 67.0476L600.626 104H583.348Z" fill="white"/>
<path d="M583.348 104L598.23 34.0048L611.976 32.9959L611.724 39.9323C615.592 34.7195 623.201 32.113 634.551 32.113L631.02 48.8867C623.621 48.9708 618.324 50.4421 615.129 53.3008C612.018 56.1595 609.79 60.7418 608.445 67.0476L600.626 104H583.348Z" fill="url(#paint8_linear_376-nftinder-logo-big-header)"/>
<defs>
<linearGradient id="paint0_linear_376-nftinder-logo-big-header" x1="7.48912" y1="51.9942" x2="147.215" y2="71.1679" gradientUnits="userSpaceOnUse">
<stop stop-color="#6FDCFF" stop-opacity="0"/>
<stop offset="1" stop-color="#FF248D"/>
</linearGradient>
<linearGradient id="paint1_linear_376-nftinder-logo-big-header" x1="634.548" y1="52.7682" x2="100.872" y2="52.7682" gradientUnits="userSpaceOnUse">
<stop offset="0.165995" stop-color="#6FDCFF"/>
<stop offset="0.794858" stop-color="#FF008A"/>
</linearGradient>
<linearGradient id="paint2_linear_376-nftinder-logo-big-header" x1="634.548" y1="52.7682" x2="100.872" y2="52.7682" gradientUnits="userSpaceOnUse">
<stop offset="0.165995" stop-color="#6FDCFF"/>
<stop offset="0.794858" stop-color="#FF008A"/>
</linearGradient>
<linearGradient id="paint3_linear_376-nftinder-logo-big-header" x1="634.548" y1="52.7682" x2="100.872" y2="52.7682" gradientUnits="userSpaceOnUse">
<stop offset="0.165995" stop-color="#6FDCFF"/>
<stop offset="0.794858" stop-color="#FF008A"/>
</linearGradient>
<linearGradient id="paint4_linear_376-nftinder-logo-big-header" x1="634.548" y1="52.7682" x2="100.872" y2="52.7682" gradientUnits="userSpaceOnUse">
<stop offset="0.165995" stop-color="#6FDCFF"/>
<stop offset="0.794858" stop-color="#FF008A"/>
</linearGradient>
<linearGradient id="paint5_linear_376-nftinder-logo-big-header" x1="634.548" y1="52.7682" x2="100.872" y2="52.7682" gradientUnits="userSpaceOnUse">
<stop offset="0.165995" stop-color="#6FDCFF"/>
<stop offset="0.794858" stop-color="#FF008A"/>
</linearGradient>
<linearGradient id="paint6_linear_376-nftinder-logo-big-header" x1="634.548" y1="52.7682" x2="100.872" y2="52.7682" gradientUnits="userSpaceOnUse">
<stop offset="0.165995" stop-color="#6FDCFF"/>
<stop offset="0.794858" stop-color="#FF008A"/>
</linearGradient>
<linearGradient id="paint7_linear_376-nftinder-logo-big-header" x1="634.548" y1="52.7682" x2="100.872" y2="52.7682" gradientUnits="userSpaceOnUse">
<stop offset="0.165995" stop-color="#6FDCFF"/>
<stop offset="0.794858" stop-color="#FF008A"/>
</linearGradient>
<linearGradient id="paint8_linear_376-nftinder-logo-big-header" x1="634.548" y1="52.7682" x2="100.872" y2="52.7682" gradientUnits="userSpaceOnUse">
<stop offset="0.165995" stop-color="#6FDCFF"/>
<stop offset="0.794858" stop-color="#FF008A"/>
</linearGradient>
</defs>
</svg>

<svg preserveAspectRatio="xMinYMin meet" width="635" height="106" fill="none" xmlns="http://www.w3.org/2000/svg"><path d="M22.15 0L0 104.06h91L113.15 0h-91z" fill="url(#paint0_linear_376-nftinder-logo-big-header)"/><path fill-rule="evenodd" clip-rule="evenodd" d="M183.911 104.06l8.575-40.286h-.101l-8.474 40.286zm12.594-59.165l5.542-26.015-5.649 26.015h.107z" fill="#fff"/><path fill-rule="evenodd" clip-rule="evenodd" d="M183.911 104.06l8.575-40.286h-.101l-8.474 40.286zm12.594-59.165l5.542-26.015-5.649 26.015h.107z" fill="url(#paint1_linear_376-nftinder-logo-big-header)"/><path d="M184.803 0l-21.14 99.316L152.99 0h-39.84L91 104.06h21.258l21.11-99.6 10.703 99.6h39.84l8.474-40.286h43.408l4.014-18.88h-43.409l5.649-26.014h76.857l-18.137 85.18h21.258l18.137-85.18h22.721L326.897 0H184.803z" fill="#fff"/><path d="M184.803 0l-21.14 99.316L152.99 0h-39.84L91 104.06h21.258l21.11-99.6 10.703 99.6h39.84l8.474-40.286h43.408l4.014-18.88h-43.409l5.649-26.014h76.857l-18.137 85.18h21.258l18.137-85.18h22.721L326.897 0H184.803z" fill="url(#paint2_linear_376-nftinder-logo-big-header)"/><path d="M351.294 0h-17.351l-4.013 18.88h17.35L351.294 0z" fill="#fff"/><path d="M351.294 0h-17.351l-4.013 18.88h17.35L351.294 0z" fill="url(#paint3_linear_376-nftinder-logo-big-header)"/><path d="M311.791 104l15.26-71.004h17.026L329.069 104h-17.278z" fill="#fff"/><path d="M311.791 104l15.26-71.004h17.026L329.069 104h-17.278z" fill="url(#paint4_linear_376-nftinder-logo-big-header)"/><path d="M346.258 104l14.882-69.995 13.747-1.01-.126 5.298c5.381-4.624 12.654-6.937 21.818-6.937 5.129 0 9.375.589 12.738 1.766 3.363 1.093 5.886 2.522 7.567 4.288 1.682 1.766 2.733 4.162 3.153 7.189.505 2.942.631 5.801.378 8.576-.252 2.69-.798 6.053-1.639 10.09L410.074 104h-17.152l8.198-38.844c.588-3.28 1.008-6.18 1.261-8.702.252-2.523-.673-4.54-2.775-6.054-2.018-1.597-5.423-2.396-10.215-2.396-5.55 0-9.543 1.345-11.982 4.036-2.438 2.69-4.204 6.6-5.297 11.729L363.663 104h-17.405z" fill="#fff"/><path d="M346.258 104l14.882-69.995 13.747-1.01-.126 5.298c5.381-4.624 12.654-6.937 21.818-6.937 5.129 0 9.375.589 12.738 1.766 3.363 1.093 5.886 2.522 7.567 4.288 1.682 1.766 2.733 4.162 3.153 7.189.505 2.942.631 5.801.378 8.576-.252 2.69-.798 6.053-1.639 10.09L410.074 104h-17.152l8.198-38.844c.588-3.28 1.008-6.18 1.261-8.702.252-2.523-.673-4.54-2.775-6.054-2.018-1.597-5.423-2.396-10.215-2.396-5.55 0-9.543 1.345-11.982 4.036-2.438 2.69-4.204 6.6-5.297 11.729L363.663 104h-17.405z" fill="url(#paint5_linear_376-nftinder-logo-big-header)"/><path d="M455.074 105.135c-17.572 0-26.358-8.576-26.358-25.728 0-4.12.63-9.038 1.891-14.756 2.355-11.014 6.096-19.296 11.225-24.845 5.213-5.633 12.864-8.45 22.953-8.45 12.696 0 20.515 2.69 23.458 8.072l7.315-33.295h17.278l-20.683 97.11-13.369 1.388.253-6.18c-4.793 4.456-12.78 6.684-23.963 6.684zm6.558-15.134c5.97 0 10.51-1.387 13.621-4.162 3.111-2.858 5.465-7.987 7.063-15.386.756-3.027 1.135-6.264 1.135-9.711 0-4.625-1.262-8.03-3.784-10.216s-6.684-3.279-12.485-3.279c-5.718 0-9.964 1.598-12.738 4.793-2.775 3.195-4.919 8.197-6.432 15.008-.757 3.363-1.135 6.6-1.135 9.71 0 4.289 1.093 7.568 3.279 9.838 2.27 2.27 6.095 3.405 11.476 3.405z" fill="#fff"/><path d="M455.074 105.135c-17.572 0-26.358-8.576-26.358-25.728 0-4.12.63-9.038 1.891-14.756 2.355-11.014 6.096-19.296 11.225-24.845 5.213-5.633 12.864-8.45 22.953-8.45 12.696 0 20.515 2.69 23.458 8.072l7.315-33.295h17.278l-20.683 97.11-13.369 1.388.253-6.18c-4.793 4.456-12.78 6.684-23.963 6.684zm6.558-15.134c5.97 0 10.51-1.387 13.621-4.162 3.111-2.858 5.465-7.987 7.063-15.386.756-3.027 1.135-6.264 1.135-9.711 0-4.625-1.262-8.03-3.784-10.216s-6.684-3.279-12.485-3.279c-5.718 0-9.964 1.598-12.738 4.793-2.775 3.195-4.919 8.197-6.432 15.008-.757 3.363-1.135 6.6-1.135 9.71 0 4.289 1.093 7.568 3.279 9.838 2.27 2.27 6.095 3.405 11.476 3.405z" fill="url(#paint6_linear_376-nftinder-logo-big-header)"/><path d="M542.64 105.387c-20.935 0-31.403-8.996-31.403-26.989 0-3.951.504-8.534 1.513-13.747 2.186-10.846 6.348-19.085 12.486-24.719 6.138-5.717 14.84-8.576 26.106-8.576 18.75 0 28.125 7.315 28.125 21.945 0 5.633-1.009 12.948-3.027 21.944h-48.682v1.514c0 9.416 5.634 14.125 16.9 14.125 8.324 0 15.26-1.724 20.81-5.17l6.81 12.359c-7.315 4.876-17.194 7.314-29.638 7.314zm6.684-59.149c-5.128 0-9.206 1.303-12.233 3.91-2.943 2.606-5.213 6.474-6.81 11.603h32.412c.42-2.102.631-3.952.631-5.55 0-3.194-1.051-5.633-3.153-7.314-2.018-1.766-5.634-2.649-10.847-2.649z" fill="#fff"/><path d="M542.64 105.387c-20.935 0-31.403-8.996-31.403-26.989 0-3.951.504-8.534 1.513-13.747 2.186-10.846 6.348-19.085 12.486-24.719 6.138-5.717 14.84-8.576 26.106-8.576 18.75 0 28.125 7.315 28.125 21.945 0 5.633-1.009 12.948-3.027 21.944h-48.682v1.514c0 9.416 5.634 14.125 16.9 14.125 8.324 0 15.26-1.724 20.81-5.17l6.81 12.359c-7.315 4.876-17.194 7.314-29.638 7.314zm6.684-59.149c-5.128 0-9.206 1.303-12.233 3.91-2.943 2.606-5.213 6.474-6.81 11.603h32.412c.42-2.102.631-3.952.631-5.55 0-3.194-1.051-5.633-3.153-7.314-2.018-1.766-5.634-2.649-10.847-2.649z" fill="url(#paint7_linear_376-nftinder-logo-big-header)"/><path d="M583.348 104l14.882-69.995 13.746-1.01-.252 6.937c3.868-5.213 11.477-7.819 22.827-7.819l-3.531 16.774c-7.399.084-12.696 1.555-15.891 4.414-3.111 2.858-5.339 7.44-6.684 13.747L600.626 104h-17.278z" fill="#fff"/><path d="M583.348 104l14.882-69.995 13.746-1.01-.252 6.937c3.868-5.213 11.477-7.819 22.827-7.819l-3.531 16.774c-7.399.084-12.696 1.555-15.891 4.414-3.111 2.858-5.339 7.44-6.684 13.747L600.626 104h-17.278z" fill="url(#paint8_linear_376-nftinder-logo-big-header)"/><defs><linearGradient id="paint0_linear_376-nftinder-logo-big-header" x1="7.489" y1="51.994" x2="147.215" y2="71.168" gradientUnits="userSpaceOnUse"><stop stop-color="#6FDCFF" stop-opacity="0"/><stop offset="1" stop-color="#FF248D"/></linearGradient><linearGradient id="paint1_linear_376-nftinder-logo-big-header" x1="634.548" y1="52.768" x2="100.872" y2="52.768" gradientUnits="userSpaceOnUse"><stop offset=".166" stop-color="#6FDCFF"/><stop offset=".795" stop-color="#FF008A"/></linearGradient><linearGradient id="paint2_linear_376-nftinder-logo-big-header" x1="634.548" y1="52.768" x2="100.872" y2="52.768" gradientUnits="userSpaceOnUse"><stop offset=".166" stop-color="#6FDCFF"/><stop offset=".795" stop-color="#FF008A"/></linearGradient><linearGradient id="paint3_linear_376-nftinder-logo-big-header" x1="634.548" y1="52.768" x2="100.872" y2="52.768" gradientUnits="userSpaceOnUse"><stop offset=".166" stop-color="#6FDCFF"/><stop offset=".795" stop-color="#FF008A"/></linearGradient><linearGradient id="paint4_linear_376-nftinder-logo-big-header" x1="634.548" y1="52.768" x2="100.872" y2="52.768" gradientUnits="userSpaceOnUse"><stop offset=".166" stop-color="#6FDCFF"/><stop offset=".795" stop-color="#FF008A"/></linearGradient><linearGradient id="paint5_linear_376-nftinder-logo-big-header" x1="634.548" y1="52.768" x2="100.872" y2="52.768" gradientUnits="userSpaceOnUse"><stop offset=".166" stop-color="#6FDCFF"/><stop offset=".795" stop-color="#FF008A"/></linearGradient><linearGradient id="paint6_linear_376-nftinder-logo-big-header" x1="634.548" y1="52.768" x2="100.872" y2="52.768" gradientUnits="userSpaceOnUse"><stop offset=".166" stop-color="#6FDCFF"/><stop offset=".795" stop-color="#FF008A"/></linearGradient><linearGradient id="paint7_linear_376-nftinder-logo-big-header" x1="634.548" y1="52.768" x2="100.872" y2="52.768" gradientUnits="userSpaceOnUse"><stop offset=".166" stop-color="#6FDCFF"/><stop offset=".795" stop-color="#FF008A"/></linearGradient><linearGradient id="paint8_linear_376-nftinder-logo-big-header" x1="634.548" y1="52.768" x2="100.872" y2="52.768" gradientUnits="userSpaceOnUse"><stop offset=".166" stop-color="#6FDCFF"/><stop offset=".795" stop-color="#FF008A"/></linearGradient></defs></svg>
